src/assets/svg/icons/fa/nuevos/classic/thin/hourglass-clock classic thin.svg

<svg xmlns="http://www.w3.org/2000/svg" viewBox="0 0 576 512"><!--! Font Awesome Pro 6.4.0 by @fontawesome - https://fontawesome.com License - https://fontawesome.com/license (Commercial License) Copyright 2023 Fonticons, Inc. --><path d="M0 8C0 3.6 3.6 0 8 0H40 344h32c4.4 0 8 3.6 8 8s-3.6 8-8 8H352V76.7c0 29.9-9.8 58.9-28 82.6l-74 96.7 24.9 32.5c-2.7 5.4-5.2 11-7.4 16.7l-33.9-44.3c-2.2-2.9-2.2-6.9 0-9.7l77.7-101.6c16-20.9 24.7-46.5 24.7-72.9V16H48l0 60.7c0 26.3 8.7 52 24.7 72.9l77.7 101.6c2.2 2.9 2.2 6.9 0 9.7L72.7 362.4C56.7 383.4 48 409 48 435.3V496H311.2c6.1 5.8 12.7 11.1 19.6 16H40 8c-4.4 0-8-3.6-8-8s3.6-8 8-8H32V435.3c0-29.9 9.8-58.9 28-82.6l74-96.7L60 159.3c-18.1-23.7-28-52.8-28-82.6L32 16H8c-4.4 0-8-3.6-8-8zM104 448H275.2c2.8 5.5 5.9 10.8 9.3 16H96c-4.4 0-8-3.6-8-8V437c0-15.3 4.9-30.2 13.9-42.6l75.6-103.1c2.6-3.6 7.6-4.3 11.2-1.7s4.3 7.6 1.7 11.2L114.8 403.8c-7 9.6-10.8 21.2-10.8 33.1v11zm8.8-323.6c1.4-2.7 4.1-4.4 7.2-4.4H264c3 0 5.8 1.7 7.2 4.4s1.1 6-.8 8.4l-72 96c-1.5 2-3.9 3.2-6.4 3.2s-4.9-1.2-6.4-3.2l-72-96c-1.8-2.4-2.1-5.7-.8-8.4zM136 136l56 74.7L248 136H136zM432 496a128 128 0 1 0 0-256 128 128 0 1 0 0 256zm0-272a144 144 0 1 1 0 288 144 144 0 1 1 0-288zm0 64c4.4 0 8 3.6 8 8v64h48c4.4 0 8 3.6 8 8s-3.6 8-8 8H432c-4.4 0-8-3.6-8-8V296c0-4.4 3.6-8 8-8z"/></svg>

<svg xmlns="http://www.w3.org/2000/svg" viewBox="0 0 576 512"><path d="M0 8C0 3.582 3.582 0 8 0H376C380.4 0 384 3.582 384 8C384 12.42 380.4 16 376 16H352V76.67C352 106.5 342.2 135.6 324 159.3L250.1 256L274.9 288.5C272.2 293.9 269.7 299.5 267.5 305.2L233.6 260.9C231.5 257.1 231.5 254 233.6 251.1L311.3 149.6C327.3 128.6 336 103 336 76.67V15.1H48V76.67C48 103 56.67 128.6 72.68 149.6L150.4 251.1C152.5 254 152.5 257.1 150.4 260.9L72.68 362.4C56.67 383.4 48 408.1 48 435.3V496H311.2C317.3 501.8 323.9 507.1 330.8 512H8C3.582 512 0 508.4 0 504C0 499.6 3.582 496 8 496H32V435.3C32 405.5 41.83 376.4 59.97 352.7L133.9 256L59.97 159.3C41.83 135.6 32 106.5 32 76.67V16H8C3.582 16 0 12.42 0 8V8zM104 448H275.2C278 453.5 281.1 458.8 284.5 464H96C91.58 464 88 460.4 88 456V436.1C88 421.6 92.88 406.7 101.9 394.4L177.5 291.3C180.2 287.7 185.2 286.9 188.7 289.5C192.3 292.2 193.1 297.2 190.5 300.7L114.8 403.8C107.8 413.4 104 425 104 436.1V448zM112.8 124.4C114.2 121.7 116.1 120 120 120H264C267 120 269.8 121.7 271.2 124.4C272.5 127.1 272.2 130.4 270.4 132.8L198.4 228.8C196.9 230.8 194.5 232 192 232C189.5 232 187.1 230.8 185.6 228.8L113.6 132.8C111.8 130.4 111.5 127.1 112.8 124.4V124.4zM136 136L192 210.7L248 136H136zM431.1 288C436.4 288 439.1 291.6 439.1 296V360H488C492.4 360 496 363.6 496 368C496 372.4 492.4 376 488 376H431.1C427.6 376 423.1 372.4 423.1 368V296C423.1 291.6 427.6 288 431.1 288V288zM288 368C288 288.5 352.5 224 432 224C511.5 224 576 288.5 576 368C576 447.5 511.5 512 432 512C352.5 512 288 447.5 288 368zM432 496C502.7 496 560 438.7 560 368C560 297.3 502.7 240 432 240C361.3 240 304 297.3 304 368C304 438.7 361.3 496 432 496z"/></svg>
